Obsidian-SemiLight/actions/16s/format-align-vertical-center.svg

<svg viewBox="0 0 16 16" xmlns="http://www.w3.org/2000/svg"><path d="m7 1v3h-2l3 3 3-3h-2v-3zm1 6h-6v1h6 6v-1zm0 1-3 3h2v3h2v-3h2z" fill="#4d4d4d"/></svg>

<svg xmlns="http://www.w3.org/2000/svg" viewBox="0 0 16 16">
  <defs id="defs3051">
    <style type="text/css" id="current-color-scheme">
      .ColorScheme-Text {
        color:#4d4d4d;
      }
      </style>
  </defs>
 <path style="fill:currentColor;fill-opacity:1;stroke:none" 
     d="M 7 1 L 7 4 L 5 4 L 8 7 L 11 4 L 9 4 L 9 1 L 7 1 z M 8 7 L 2 7 L 2 8 L 8 8 L 14 8 L 14 7 L 8 7 z M 8 8 L 5 11 L 7 11 L 7 14 L 9 14 L 9 11 L 11 11 L 8 8 z "
     class="ColorScheme-Text"
     />
</svg>
